X:1
T:Title
%%score ( 1 2 ) ( 3 4 )
L:1/8
Q:1/4=89
M:2/4
K:F
V:1 treble nm="Grand Piano, Soprano"
V:2 treble 
V:3 bass nm="Choir Pad, In Canaan Now"
V:4 bass 
V:1
 CC C[CF] | [CG][FA] [FA]2 | [FA][FA] [FA][EB] | [FA] [EG]3 | CC [CE][EG] | [FA] [GB]3 | %6
w: By~John~McPherson * * *||||||
 [GB][Ac] [GB][FA] | [EG] F3 | D/E/D [DE][DF] | [EG][FA] [FA]2 | F/E/D [DE][DF] | [EG] [FA]3 | %12
w: ||||||
 [FA][FA] [FA][FA] | [FA][FA] [FA][FA] | [FA][FA]/[FA]/ [FA][FA] | [FA]B G[CE] | CC/C/ C[CF] | %17
w: |||||
 [CG] [FA]3 | [FA][FA]/[FA]/ [FA][EB] | [FA] [EG]3 | C[EG] [EG][EG] | [FA][GB] [GB][GB] | %22
w: |||||
 [GB][Ac]/[Ac]/ [GB][FA] | [EG] F3- | F4 |] %25
w: |||
V:2
 x4 | x4 | x4 | x4 | x4 | x4 | x4 | x4 | .B,2 z2 | x4 | .D2 z2 | x4 | x4 | x4 | x4 | z .E3 | x4 | %17
 x4 | x4 | x4 | x4 | x4 | x4 | x4 | x4 |] %25
V:3
 [F,A,][F,A,] [F,A,][F,A,] | [F,B,][F,C] [F,C]2 | [F,C][F,C] [F,C][G,C] | [F,C] [C,C]3 | %4
 [C,E,][C,E,] [C,G,][C,C] | [C,C] [C,C]3 | [C,C][C,C] [C,C][C,C] | [C,B,] [F,A,]3 | %8
 A,/G,/[D,F,] [D,G,][D,A,] | [A,,A,][D,A,] [D,A,]2 | A,/G,/[D,F,] [D,G,][D,A,] | [A,,A,] [D,A,]3 | %12
 [D,A,][D,A,] [D,A,][D,A,] | [D,A,][D,A,] [D,A,][D,A,] | [D,A,][D,A,]/[D,A,]/ [D,A,][D,A,] | %15
 [D,A,] C2 B,- | B,[F,A,]/[F,A,]/ [F,A,][F,A,] | [F,B,] [F,C]3 | [F,C][F,C]/[F,C]/ [F,C][G,C] | %19
 [F,C] [C,C]3 | [C,C][C,C] [C,C][C,C] | [C,C][C,C] [C,C][C,C] | [C,C][C,C]/[C,C]/ [C,C][C,C] | %23
 [C,B,] [F,A,]3- | [F,A,]4 |] %25
V:4
 x4 | x4 | x4 | x4 | x4 | x4 | x4 | x4 | .D,2 z2 | x4 | .D,2 z2 | x4 | x4 | x4 | x4 | z C,3- | %16
 C, z z2 | x4 | x4 | x4 | x4 | x4 | x4 | x4 | x4 |] %25

